remix/Development/css3-line.svg

<svg viewBox="0 0 24 24" fill="currentColor" xmlns="http://www.w3.org/2000/svg"><path d="M2.8 14H4.83961L4.2947 16.7245L10.0393 18.8787L17.2665 16.4697L18.3604 11H3.4L3.8 9H18.7604L19.5604 5H4.6L5 3H22L19 18L10 21L2 18L2.8 14Z"/></svg>

<svg viewBox="0 0 24 24" xmlns="http://www.w3.org/2000/svg"><path fill="none" d="M0 0h24v24H0Z"/><path d="M2.8 14h2.04l-.55 2.72 5.744 2.154 7.22-2.41 1.09-5.47H3.38l.4-2h14.96l.8-4H4.58l.4-2h17l-3 15 -9 3 -8-3Z"/></svg>
